X: 464
T: Old Chattanooga
C:Traditional
B: jims roots
M:2/4
L:1/8
Q: 1/4=100
K:G
V:1 
(3GFE|:"G"D2 E2 G2 A2 | [D4B4] [D3B3] A | [D2B2] eB dBAG | "C"[C6E6] (3EFE |
"G"DD E2 G2 A2 |[D4B4] [D3B3] A| [D2B2] eB "D"dBAE |[1 "G"[D6G6] (3 GFE :|[2 "G""G"[D6G6]ef||
|:"G"g2 ga gd3 | e2 d2 B3 G | B2 eB dBAG | "C"[C6E6] ef |
"G"gaba g2 d2 | eged BG3 | [D2B2] eB "D"dBAF | [1"G"[G6B] ef:|[2 "G"[G6B] (3GFE|]
% abcbook-tune_id 6298c245d0dc1314c60e3dc2


% abcbook-boost 0
% abcbook-tablature 
% abcbook-transpose 
% abcbook-lastupdated 1654178373677
% abcbook-soundfonts 
% abcbook-repeats 1


